dist/img/svg/figure_icon.svg

<svg version="1.2" baseProfile="tiny-ps" xmlns="http://www.w3.org/2000/svg" width="1344" height="1271"><style>.shp0{fill:#000}</style><g id="Layer 2"><g id="&lt;Group&gt;"><path id="&lt;Path&gt;" class="shp0" d="M1312 1271H96c-17.66 0-32-14.33-32-32 0-17.66 14.34-32 32-32h1216c17.66 0 32 14.34 32 32 0 17.67-14.34 32-32 32z"/></g><g id="&lt;Group&gt;"><path id="&lt;Compound Path&gt;" fill-rule="evenodd" class="shp0" d="M522.05 1142.94c-41.03 0-81.99-15.62-113.22-46.79L46.85 734.11c-62.4-62.41-62.4-163.91 0-226.31L544.64 10.01c12.48-12.48 32.77-12.48 45.25 0l543.04 543.04c6.01 6.01 9.34 14.14 9.34 22.65 0 8.52-3.39 16.64-9.34 22.66l-497.8 497.79c-31.1 31.17-72.12 46.79-113.08 46.79zm-67.91-92.04c37.44 37.32 98.24 37.45 135.81 0l475.2-475.13L567.29 77.91 92.1 553.05c-37.44 37.44-37.44 98.37 0 135.81l362.04 362.04z"/></g><g id="&lt;Group&gt;"><path id="&lt;Compound Path&gt;" fill-rule="evenodd" class="shp0" d="M1184 1143c-88.26 0-160-71.81-160-160 0-76.8 111.36-241.86 133.69-274.18 11.91-17.34 40.77-17.34 52.61 0C1232.64 741.14 1344 906.2 1344 983c0 88.19-71.75 160-160 160zm0-358.14c-46.08 72-96 163.19-96 198.14 0 52.93 43.07 96 96 96s96-43.07 96-96c0-35.01-49.92-126.21-96-198.14z"/></g><g id="&lt;Group&gt;"><path id="&lt;Path&gt;" class="shp0" d="M1087.36 631H34.56c-17.67 0-32-14.34-32-32s14.33-32 32-32h1052.8c17.66 0 32 14.34 32 32s-14.27 32-32 32z"/></g></g></svg>

<svg version="1.2" baseProfile="tiny-ps" xmlns="http://www.w3.org/2000/svg" viewBox="0 0 1344 1271" width="1344" height="1271">
	<title>Layer 2</title>
	<style>
		tspan { white-space:pre }
		.shp0 { fill: #000000 } 
	</style>
	<g id="Layer 2">
		<g id="&lt;Group&gt;">
			<path id="&lt;Path&gt;" class="shp0" d="M1312 1271L96 1271C78.34 1271 64 1256.67 64 1239C64 1221.34 78.34 1207 96 1207L1312 1207C1329.66 1207 1344 1221.34 1344 1239C1344 1256.67 1329.66 1271 1312 1271Z" />
		</g>
		<g id="&lt;Group&gt;">
			<path id="&lt;Compound Path&gt;" fill-rule="evenodd" class="shp0" d="M522.05 1142.94C481.02 1142.94 440.06 1127.32 408.83 1096.15L46.85 734.11C-15.55 671.7 -15.55 570.2 46.85 507.8L544.64 10.01C557.12 -2.47 577.41 -2.47 589.89 10.01L1132.93 553.05C1138.94 559.06 1142.27 567.19 1142.27 575.7C1142.27 584.22 1138.88 592.34 1132.93 598.36L635.13 1096.15C604.03 1127.32 563.01 1142.94 522.05 1142.94ZM454.14 1050.9C491.58 1088.22 552.38 1088.35 589.95 1050.9L1065.15 575.77L567.29 77.91L92.1 553.05C54.66 590.49 54.66 651.42 92.1 688.86L454.14 1050.9Z" />
		</g>
		<g id="&lt;Group&gt;">
			<path id="&lt;Compound Path&gt;" fill-rule="evenodd" class="shp0" d="M1184 1143C1095.74 1143 1024 1071.19 1024 983C1024 906.2 1135.36 741.14 1157.69 708.82C1169.6 691.48 1198.46 691.48 1210.3 708.82C1232.64 741.14 1344 906.2 1344 983C1344 1071.19 1272.25 1143 1184 1143ZM1184 784.86C1137.92 856.86 1088 948.05 1088 983C1088 1035.93 1131.07 1079 1184 1079C1236.93 1079 1280 1035.93 1280 983C1280 947.99 1230.08 856.79 1184 784.86Z" />
		</g>
		<g id="&lt;Group&gt;">
			<path id="&lt;Path&gt;" class="shp0" d="M1087.36 631L34.56 631C16.89 631 2.56 616.66 2.56 599C2.56 581.34 16.89 567 34.56 567L1087.36 567C1105.02 567 1119.36 581.34 1119.36 599C1119.36 616.66 1105.09 631 1087.36 631Z" />
		</g>
	</g>
</svg>
